jsapp/svg-icons/edit.svg

<?xml version="1.0" encoding="UTF-8"?>
<svg width="40px" height="40px" viewBox="0 0 40 40" version="1.1" xmlns="http://www.w3.org/2000/svg" xmlns:xlink="http://www.w3.org/1999/xlink">
    <!-- Generator: Sketch 50.2 (55047) - http://www.bohemiancoding.com/sketch -->
    <title>Icons/edit</title>
    <desc>Created with Sketch.</desc>
    <defs>
        <path d="M27.4091683,12.594 C28.1731683,13.359 28.1731683,14.693 27.4091683,15.458 L26.6901683,16.178 L23.8241683,13.313 L24.5451683,12.594 C25.3101683,11.83 26.6441683,11.829 27.4091683,12.594 L27.4091683,12.594 Z M12.3761683,27.626 L12.9711683,25.252 L14.7501683,27.033 L12.3761683,27.626 Z M22.4111683,14.728 L25.2741683,17.591 L16.7061683,26.159 L13.8431683,23.296 L22.4111683,14.728 Z M28.8211683,11.179 C28.0611683,10.418 27.0501683,10 25.9741683,10 C24.9001683,10 23.8881683,10.418 23.1281683,11.179 L11.7191683,22.587 C11.7191683,22.587 11.7181683,22.59 11.7171683,22.591 C11.6361683,22.673 11.4971683,22.889 11.4561683,23.052 L10.0301683,28.757 C9.94416832,29.097 10.0451683,29.458 10.2931683,29.706 L10.2941683,29.707 L10.2961683,29.708 C10.5441683,29.956 10.9041683,30.057 11.2451683,29.972 L16.9491683,28.545 C17.1121683,28.504 17.3291683,28.365 17.4101683,28.284 C17.4111683,28.283 17.4141683,28.282 17.4141683,28.282 L28.8231683,16.873 C29.5831683,16.113 30.0021683,15.102 30.0011683,14.027 C30.0011683,12.951 29.5831683,11.941 28.8231683,11.18 L28.8211683,11.179 Z" id="path-1"></path>
    </defs>
    <g id="Icons/edit" stroke="none" stroke-width="1" fill="none" fill-rule="evenodd">
        <mask id="mask-2" fill="white">
            <use xlink:href="#path-1"></use>
        </mask>
        <use id="Mask" fill="#000000" xlink:href="#path-1"></use>
    </g>
</svg>

<svg height="40" viewBox="0 0 40 40" width="40" xmlns="http://www.w3.org/2000/svg"><path d="m27.4091683 12.594c.764.765.764 2.099 0 2.864l-.719.72-2.866-2.865.721-.719c.765-.764 2.099-.765 2.864 0zm-15.033 15.032.595-2.374 1.779 1.781zm10.035-12.898 2.863 2.863-8.568 8.568-2.863-2.863zm6.41-3.549c-.76-.761-1.771-1.179-2.847-1.179-1.074 0-2.086.418-2.846 1.179l-11.409 11.408s-.001.003-.002.004c-.081.082-.22.298-.261.461l-1.426 5.705c-.08599998.34.015.701.263.949l.001.001.002.001c.248.248.608.349.949.264l5.704-1.427c.163-.041.38-.18.461-.261.001-.001.004-.002.004-.002l11.409-11.409c.76-.76 1.179-1.771 1.178-2.846 0-1.076-.418-2.086-1.178-2.847z" fill-rule="evenodd"/></svg>
